elusive/camera.svg

<?xml version="1.0" encoding="UTF-8" standalone="no"?>
<!-- Generator: IcoMoon.io -->

<svg
   xmlns:dc="http://purl.org/dc/elements/1.1/"
   xmlns:cc="http://creativecommons.org/ns#"
   xmlns:rdf="http://www.w3.org/1999/02/22-rdf-syntax-ns#"
   xmlns:svg="http://www.w3.org/2000/svg"
   xmlns="http://www.w3.org/2000/svg"
   xmlns:sodipodi="http://sodipodi.sourceforge.net/DTD/sodipodi-0.dtd"
   xmlns:inkscape="http://www.inkscape.org/namespaces/inkscape"
   id="svg2"
   data-tags="remove-circle, cancel, close, remove, delete"
   height="1200"
   viewBox="0 0 1200 1200"
   width="1200"
   version="1.1"
   data-du=""
   inkscape:version="0.48.4 r9939"
   sodipodi:docname="camera.svg">
  <defs
     id="defs3146" />
  <sodipodi:namedview
     pagecolor="#ffffff"
     bordercolor="#666666"
     borderopacity="1"
     objecttolerance="10"
     gridtolerance="10"
     guidetolerance="10"
     inkscape:pageopacity="0"
     inkscape:pageshadow="2"
     inkscape:window-width="1535"
     inkscape:window-height="876"
     id="namedview3144"
     showgrid="false"
     inkscape:zoom="0.26339286"
     inkscape:cx="-67.796606"
     inkscape:cy="448"
     inkscape:window-x="65"
     inkscape:window-y="24"
     inkscape:window-maximized="1"
     inkscape:current-layer="svg2" />
  <metadata
     id="metadata62">
    <rdf:RDF>
      <cc:Work
         rdf:about="">
        <dc:format>image/svg+xml</dc:format>
        <dc:type
           rdf:resource="http://purl.org/dc/dcmitype/StillImage" />
        <dc:title />
      </cc:Work>
    </rdf:RDF>
  </metadata>
  <g
     id="g3324"
     transform="matrix(1.5019531,0,0,1.5019531,-562.55758,274.03443)" />
  <path
     inkscape:connector-curvature="0"
     d="m 390.7242,148.17188 -37.75547,151.82813 -352.96874948,0 0,751.82809 1200.00001948,0 0,-751.82809 -336.51565,0 -37.75546,-151.82813 -435.00001,0 z m 212.34141,151.5375 c 186.39609,0 337.45312,151.06641 337.45312,337.45313 0,186.3961 -151.06875,337.45318 -337.45312,337.45318 -186.3961,0 -337.45313,-151.0688 -337.45313,-337.45318 0,-186.39609 151.06641,-337.45313 337.45313,-337.45313 z m 395.71874,73.46251 170.12105,0 0,98.77969 -170.12105,0 0,-98.77969 z m -395.71874,26.19609 c -131.33673,0 -237.79688,106.46953 -237.79688,237.79687 0,131.33673 106.46953,237.79687 237.79688,237.79687 131.33672,0 237.79687,-106.46952 237.79687,-237.79687 0,-131.33671 -106.46953,-237.79687 -237.79687,-237.79687 z"
     id="path3584" />
</svg>

<?xml version="1.0" encoding="utf-8"?>
<!-- Generator: Adobe Illustrator 16.0.0, SVG Export Plug-In . SVG Version: 6.00 Build 0)  -->
<!DOCTYPE svg PUBLIC "-//W3C//DTD SVG 1.1//EN" "http://www.w3.org/Graphics/SVG/1.1/DTD/svg11.dtd">
<svg version="1.1"
	 id="svg2" xmlns:dc="http://purl.org/dc/elements/1.1/" xmlns:cc="http://creativecommons.org/ns#" xmlns:rdf="http://www.w3.org/1999/02/22-rdf-syntax-ns#" xmlns:svg="http://www.w3.org/2000/svg" xmlns:sodipodi="http://sodipodi.sourceforge.net/DTD/sodipodi-0.dtd" xmlns:inkscape="http://www.inkscape.org/namespaces/inkscape" sodipodi:docname="camera.svg" inkscape:version="0.48.4 r9939"
	 xmlns="http://www.w3.org/2000/svg" xmlns:xlink="http://www.w3.org/1999/xlink" x="0px" y="0px" width="1200px" height="1200px"
	 viewBox="0 0 1200 1200" enable-background="new 0 0 1200 1200" xml:space="preserve">
<sodipodi:namedview  inkscape:cy="448" inkscape:cx="-67.796606" inkscape:zoom="0.26339286" showgrid="false" id="namedview3144" guidetolerance="10" gridtolerance="10" objecttolerance="10" borderopacity="1" bordercolor="#666666" pagecolor="#ffffff" inkscape:current-layer="svg2" inkscape:window-maximized="1" inkscape:window-y="24" inkscape:window-height="876" inkscape:window-width="1535" inkscape:pageshadow="2" inkscape:pageopacity="0" inkscape:window-x="65">
	</sodipodi:namedview>
<g id="g3324" transform="matrix(1.5019531,0,0,1.5019531,-562.55758,274.03443)">
</g>
<path id="path3584" inkscape:connector-curvature="0" d="M390.724,148.172L352.969,300H0v751.828h1200V300H863.484l-37.756-151.828
	h-435H390.724z M603.065,299.709c186.396,0,337.453,151.066,337.453,337.453c0,186.396-151.068,337.453-337.453,337.453
	c-186.396,0-337.453-151.068-337.453-337.453C265.612,450.767,416.679,299.709,603.065,299.709L603.065,299.709z M998.784,373.172
	h170.121v98.779H998.784V373.172z M603.065,399.368c-131.337,0-237.797,106.47-237.797,237.797
	c0,131.337,106.47,237.797,237.797,237.797c131.337,0,237.797-106.47,237.797-237.797
	C840.862,505.828,734.393,399.368,603.065,399.368z"/>
</svg>
